image/ection-twacs-item-img3.svg

<svg fill="none" height="29" viewBox="0 0 24 29" width="24" xmlns="http://www.w3.org/2000/svg"><path clip-rule="evenodd" d="m23.0378 12.1667c-.4942-.8559-1.4-1.1373-2.2646-1.2582-.8716-.1219-2.0381-.1218-3.4491-.1218h-.0802c-.8402 0-1.3895-.0083-1.7896-.0639-.3619-.0503-.477-.1248-.5261-.1682-.036-.0375-.1001-.1251-.1437-.4411-.0514-.37255-.0537-.88341-.0537-1.70217v-.49931c.0001-2.1167.0001-3.81235-.1628-5.02127-.1529-1.13475-.5164-2.409208-1.7753-2.7950018-1.2368-.3790172-2.2742.4337198-3.08051 1.2716018-.85898.8926-1.87936 2.2732-3.15693 4.00178l-4.18266 5.65907c-.81378 1.101-1.492164 2.0187-1.896367 2.7777-.4051818.7607-.700059 1.664-.250627 2.5651l.001565.0033.004739.0097.005383.0106.005299.0102.005799.0109.005895.0109.005582.01.005901.0104.005406.0092.001983.0033c.490004.8486 1.391822 1.1457 2.264302 1.2789.89909.1373 2.0988.1461 3.55379.1461.84881 0 1.39004.0019 1.78753.0526.35114.0447.45615.1138.50117.1536.03987.0416.10979.1389.1591.4663.05643.3747.06528.8935.06527 1.7029l-.00001.4991c-.00006 2.1167-.00011 3.8124.16278 5.0214.1529 1.1347.51635 2.4092 1.77531 2.795 1.2368.379 2.2741-.4337 3.0805-1.2716.859-.8926 1.8794-2.2732 3.157-4.0018l4.1325-5.5911c.841-1.1379 1.5327-2.0886 1.9407-2.8799.3992-.7743.6776-1.6828.2323-2.5757l-.0015-.0032-.0047-.0097-.0054-.0107-.0054-.0103-.0058-.0109-.0059-.0109-.0056-.0101-.0059-.0104-.0055-.0092zm-11.8845-9.41253c-.7573.78692-1.70099 2.06015-3.03931 3.87088l-4.08286 5.52405c-.87691 1.1865-1.46363 1.9848-1.78965 2.5969-.15869.298-.21826.4859-.23522.5997-.01048.0703-.00408.102.00429.1223.03225.0476.17227.1931.82876.2933.7172.1095 1.74843.1232 3.25194.1232h.0613c.76951-.0001 1.44-.0001 1.97917.0686.57758.0737 1.1513.2411 1.62632.6879l.00777.0073.00762.0075c.46667.458.65637 1.026.74337 1.6034.083.5518.0875 1.2305.0875 2.0007v.4128c0 2.2225.0022 3.7818.1449 4.8406.071.5272.1666.8364.2581 1.0091.0685.1295.108.1379.1191.1403l.002.0005.002.0007c.014.0048.0631.0217.2147-.0545.1893-.0953.4598-.3008.8367-.6924.7573-.7869 1.701-2.0602 3.0393-3.8709l4.0829-5.524c.8719-1.1797 1.4529-1.9897 1.7714-2.6075.273-.5295.2433-.7089.2251-.7565-.0299-.0437-.1644-.1794-.8043-.2689-.7161-.1001-1.7408-.1025-3.2523-.1025-.8038 0-1.5009-.0045-2.0651-.0829-.5824-.081-1.1575-.2563-1.6284-.6992l-.0077-.0073-.0077-.0075c-.4709-.4623-.6525-1.0295-.7317-1.6027-.0726-.52576-.0725-1.17685-.0725-1.91131v-.47739c0-2.22253-.0022-3.7818-.1449-4.84055-.0711-.5272-.1666-.83644-.2581-1.00913-.0686-.12942-.1081-.13789-.1191-.14027l-.002-.00048-.002-.00067c-.014-.00482-.0631-.02178-.2147.05448-.1894.09528-.4598.30073-.8367.69239z" fill="#4b4b4b" fill-rule="evenodd"/></svg>

<svg width="24" height="29" viewBox="0 0 24 29" fill="none" xmlns="http://www.w3.org/2000/svg">
<path fill-rule="evenodd" clip-rule="evenodd" d="M23.0378 12.1667C22.5436 11.3108 21.6378 11.0294 20.7732 10.9085C19.9016 10.7866 18.7351 10.7867 17.3241 10.7867L17.2439 10.7867C16.4037 10.7867 15.8544 10.7784 15.4543 10.7228C15.0924 10.6725 14.9773 10.598 14.9282 10.5546C14.8922 10.5171 14.8281 10.4295 14.7845 10.1135C14.7331 9.74095 14.7308 9.23009 14.7308 8.41133V7.91202C14.7309 5.79532 14.7309 4.09967 14.568 2.89075C14.4151 1.756 14.0516 0.481542 12.7927 0.0957482C11.5559 -0.283269 10.5185 0.529468 9.71219 1.36735C8.85321 2.25995 7.83283 3.64055 6.55526 5.36913L2.3726 11.0282C1.55882 12.1292 0.880436 13.0469 0.476233 13.8059C0.0710512 14.5666 -0.223826 15.4699 0.225606 16.371L0.227171 16.3743L0.23191 16.384L0.237293 16.3946L0.242592 16.4048L0.248391 16.4157L0.254286 16.4266L0.259868 16.4366L0.265769 16.447L0.271175 16.4562L0.273158 16.4595C0.763162 17.3081 1.66498 17.6052 2.53746 17.7384C3.43655 17.8757 4.63626 17.8845 6.09125 17.8845C6.94006 17.8845 7.48129 17.8864 7.87878 17.9371C8.22992 17.9818 8.33493 18.0509 8.37995 18.0907C8.41982 18.1323 8.48974 18.2296 8.53905 18.557C8.59548 18.9317 8.60433 19.4505 8.60432 20.2599L8.60431 20.759C8.60425 22.8757 8.6042 24.5714 8.76709 25.7804C8.91999 26.9151 9.28344 28.1896 10.5424 28.5754C11.7792 28.9544 12.8165 28.1417 13.6229 27.3038C14.4819 26.4112 15.5023 25.0306 16.7799 23.302L20.9124 17.7109C21.7534 16.573 22.4451 15.6223 22.8531 14.831C23.2523 14.0567 23.5307 13.1482 23.0854 12.2553L23.0839 12.2521L23.0792 12.2424L23.0738 12.2317L23.0684 12.2214L23.0626 12.2105L23.0567 12.1996L23.0511 12.1895L23.0452 12.1791L23.0397 12.1699L23.0378 12.1667ZM11.1533 2.75417C10.396 3.54109 9.45231 4.81432 8.11399 6.62505L4.03113 12.1491C3.15422 13.3356 2.5675 14.1339 2.24148 14.746C2.08279 15.044 2.02322 15.2319 2.00626 15.3457C1.99578 15.416 2.00218 15.4477 2.01055 15.468C2.0428 15.5156 2.18282 15.6611 2.83931 15.7613C3.55651 15.8708 4.58774 15.8845 6.09125 15.8845L6.15255 15.8845C6.92206 15.8844 7.59255 15.8844 8.13172 15.9531C8.7093 16.0268 9.28302 16.1942 9.75804 16.641L9.76581 16.6483L9.77343 16.6558C10.2401 17.1138 10.4298 17.6818 10.5168 18.2592C10.5998 18.811 10.6043 19.4897 10.6043 20.2599L10.6043 20.6727C10.6043 22.8952 10.6065 24.4545 10.7492 25.5133C10.8202 26.0405 10.9158 26.3497 11.0073 26.5224C11.0758 26.6519 11.1153 26.6603 11.1264 26.6627L11.1284 26.6632L11.1304 26.6639C11.1444 26.6687 11.1935 26.6856 11.3451 26.6094C11.5344 26.5141 11.8049 26.3086 12.1818 25.917C12.9391 25.1301 13.8828 23.8568 15.2211 22.0461L19.304 16.5221C20.1759 15.3424 20.7569 14.5324 21.0754 13.9146C21.3484 13.3851 21.3187 13.2057 21.3005 13.1581C21.2706 13.1144 21.1361 12.9787 20.4962 12.8892C19.7801 12.7891 18.7554 12.7867 17.2439 12.7867C16.4401 12.7867 15.743 12.7822 15.1788 12.7038C14.5964 12.6228 14.0213 12.4475 13.5504 12.0046L13.5427 11.9973L13.535 11.9898C13.0641 11.5275 12.8825 10.9603 12.8033 10.3871C12.7307 9.86134 12.7308 9.21025 12.7308 8.47579L12.7308 7.9984C12.7308 5.77587 12.7286 4.2166 12.5859 3.15785C12.5148 2.63065 12.4193 2.32141 12.3278 2.14872C12.2592 2.0193 12.2197 2.01083 12.2087 2.00845L12.2067 2.00797L12.2047 2.0073C12.1907 2.00248 12.1416 1.98552 11.99 2.06178C11.8006 2.15706 11.5302 2.36251 11.1533 2.75417Z" fill="#4B4B4B"/>
</svg>
